X:18
T: Musikantenvierzeiler 3, S. 71
N: S0081
O: Luxemburg
S: Die Bauernhochzeit in frheren Zeiten]
R: Liebeslied, Brautwerbung]
M: 2/4
L: 1/16
K: F
 | A2F2F2EF | A2F2F2
F2 | G2G2c2B2 | A4F4 |
A2F2F2EF | A2F2F2
F2 | G2G2c2E2 | G4F4

@@@ Tune index: 8072
